X:0957
T:"Bolt the Door"       (jig)     0957
C:after Mr. Delaney
B:O'Neill's Music Of Ireland (The 1850) Lyon & Healy, Chicago, 1903 edition
Z:FROM O'NEILL'S TO NOTEWORTHY, FROM NOTEWORTHY TO ABC, MIDI AND .TXT BY VINCE
BRENNAN July 2003 (HTTP://WWW.SOSYOURMOM.COM)
I:abc2nwc
M:6/8
L:1/8
K:C
f|ecA A2B|G2E E2B|c2A B2G|A2B c2d|
ecA A2B|G2E E2B|c2A B2G|ABA A2:|
B|cBA G2B|e3d2B|c2A B2G|A2B c2d|
ecA A2d|e3d2B|c2A B2A|G3g2e|
cBA G2d|e3d2B|c2A B2G|A2B c2d|
ecA A2d|e2a a2^f|g2e d2B|A3|]
